boxicons/svg/solid/bxs-memory-card.svg

<svg xmlns="http://www.w3.org/2000/svg" width="24" height="24" viewBox="0 0 24 24"><path d="M15 2H6c-1.103 0-2 .897-2 2v16c0 1.103.897 2 2 2h12c1.103 0 2-.897 2-2V7l-5-5zm-6 8H7V6h2v4zm3 0h-2V6h2v4zm3 0h-2V6h2v4z"/></svg>

<svg xmlns="http://www.w3.org/2000/svg" width="24" height="24" viewBox="0 0 24 24"><path d="M15,2H6C4.897,2,4,2.897,4,4v16c0,1.103,0.897,2,2,2h12c1.103,0,2-0.897,2-2V7L15,2z M9,10H7V6h2V10z M12,10h-2V6h2V10z M15,10h-2V6h2V10z"/></svg>
